styles/2/Numix/256/places/default-folder-music.svg

<?xml version="1.0" encoding="UTF-8" standalone="no"?>
<svg
   xmlns:dc="http://purl.org/dc/elements/1.1/"
   xmlns:cc="http://creativecommons.org/ns#"
   xmlns:rdf="http://www.w3.org/1999/02/22-rdf-syntax-ns#"
   xmlns:svg="http://www.w3.org/2000/svg"
   xmlns="http://www.w3.org/2000/svg"
   xmlns:sodipodi="http://sodipodi.sourceforge.net/DTD/sodipodi-0.dtd"
   xmlns:inkscape="http://www.inkscape.org/namespaces/inkscape"
   width="256px"
   height="256px"
   viewBox="0 0 256 256"
   version="1.1"
   id="svg6795"
   inkscape:version="0.91 r"
   sodipodi:docname="default-folder-music.svg">
  <metadata
     id="metadata6808">
    <rdf:RDF>
      <cc:Work
         rdf:about="">
        <dc:format>image/svg+xml</dc:format>
        <dc:type
           rdf:resource="http://purl.org/dc/dcmitype/StillImage" />
      </cc:Work>
    </rdf:RDF>
  </metadata>
  <defs
     id="defs6806" />
  <sodipodi:namedview
     pagecolor="#ffffff"
     bordercolor="#666666"
     borderopacity="1"
     objecttolerance="10"
     gridtolerance="10"
     guidetolerance="10"
     inkscape:pageopacity="0"
     inkscape:pageshadow="2"
     inkscape:window-width="640"
     inkscape:window-height="480"
     id="namedview6804" />
  <g
     id="surface1">
    <path
       style=" stroke:none;fill-rule:nonzero;fill:rgb(91.372549%,69.019608%,50.196078%);fill-opacity:1;"
       d="M 36 32 C 30.140625 32 24 38.046875 24 44 L 24 48 L 12 48 C 6.117188 48 0 53.984375 0 60 L 0 212 C 0 220 4 224 12 224 L 244 224 C 250.273438 224 256 218.570312 256 212 L 256 80 C 256 73.976562 250.179688 68 244 68 L 232 68 L 232 44 C 232 38.15625 226.1875 32 220 32 Z M 36 32 "
       id="path6798" />
    <path
       style=" stroke:none;fill-rule:nonzero;fill:rgb(0%,0%,0%);fill-opacity:0.321569;"
       d="M 36 32 C 30.140625 32 24 38.046875 24 44 L 24 48 L 12 48 C 6.117188 48 0 53.984375 0 60 L 0 212 C 0 220 4 224 12 224 L 244 224 C 250.273438 224 256 218.570312 256 212 L 256 80 C 256 73.976562 250.179688 68 244 68 L 232 68 L 232 44 C 232 38.15625 226.1875 32 220 32 Z M 12 56 L 148 56 C 150.359375 56 152 58.0625 152 60 L 152 76 L 244 76 C 246.023438 76 248 78.03125 248 80 L 248 212 C 248 214.085938 246.085938 216 244 216 L 12 216 C 10.140625 216 8 214.414062 8 212 L 8 60 C 8 58.03125 10.0625 56 12 56 Z M 12 56 "
       id="path6800" />
    <path
       style=" stroke:none;fill-rule:nonzero;fill:rgb(0%,0%,0%);fill-opacity:0.321569;"
       d="M 112 100 C 103.132812 100 96 106.992188 96 115.625 L 96 116.375 C 96 116.984375 96.179688 117.539062 96.25 118.125 C 96.109375 118.726562 96 119.351562 96 120 L 96 164 C 87.164062 164 80 171.164062 80 180 C 80 188.835938 87.164062 196 96 196 C 104.195312 196 110.8125 189.820312 111.75 181.875 C 111.820312 181.257812 112 180.640625 112 180 L 112 132 L 160 132 L 160 164 C 151.164062 164 144 171.164062 144 180 C 144 188.835938 151.164062 196 160 196 C 168.835938 196 176 188.835938 176 180 L 176 116 C 176 115.875 176.007812 115.75 176 115.625 C 176 106.992188 168.867188 100 160 100 Z M 112 100 "
       id="path6802" />
  </g>
</svg>

<svg xmlns="http://www.w3.org/2000/svg" viewBox="0 0 256 256">
 <g>
  <path d="m 36 32 c -5.859 0 -12 6.05 -12 12 l 0 4 l -12 0 c -5.883 0 -12 5.984 -12 12 l 0 152 c 0 8 4 12 12 12 l 232 0 c 6.273 0 12 -5.43 12 -12 l 0 -132 c 0 -6.02 -5.82 -12 -12 -12 l -12 0 l 0 -24 c 0 -5.844 -5.813 -12 -12 -12 m -184 0" style="fill:#e8b07f;fill-opacity:1;stroke:none;fill-rule:nonzero"/>
  <path d="m 36 32 c -5.859 0 -12 6.05 -12 12 l 0 4 l -12 0 c -5.883 0 -12 5.984 -12 12 l 0 152 c 0 8 4 12 12 12 l 232 0 c 6.273 0 12 -5.43 12 -12 l 0 -132 c 0 -6.02 -5.82 -12 -12 -12 l -12 0 l 0 -24 c 0 -5.844 -5.813 -12 -12 -12 m -208 24 l 136 0 c 2.359 0 4 2.063 4 4 l 0 16 l 92 0 c 2.023 0 4 2.031 4 4 l 0 132 c 0 2.086 -1.914 4 -4 4 l -232 0 c -1.859 0 -4 -1.586 -4 -4 l 0 -152 c 0 -1.969 2.063 -4 4 -4 m 0 0" style="fill:#000;fill-opacity:0.322;stroke:none;fill-rule:nonzero"/>
  <path d="m 112 100 c -8.867 0 -16 6.992 -16 15.625 l 0 0.75 c 0 0.609 0.18 1.164 0.25 1.75 c -0.141 0.602 -0.25 1.227 -0.25 1.875 l 0 44 c -8.836 0 -16 7.164 -16 16 c 0 8.836 7.164 16 16 16 c 8.195 0 14.813 -6.18 15.75 -14.12 c 0.07 -0.617 0.25 -1.234 0.25 -1.875 l 0 -48 l 48 0 l 0 32 c -8.836 0 -16 7.164 -16 16 c 0 8.836 7.164 16 16 16 c 8.836 0 16 -7.164 16 -16 l 0 -64 c 0 -0.125 0.008 -0.25 0 -0.375 c 0 -8.633 -7.133 -15.625 -16 -15.625 m -48 0" style="fill:#000;fill-opacity:0.322;stroke:none;fill-rule:nonzero"/>
 </g>
</svg>
